X: 1
T: Flagstaff
C: David A. Kaynor 2017
%D:2017
R: reel
Z: 2017 John Chambers <jc:trillian.mit.edu>
M: C|
L: 1/8
K: A
(3efg |\
"A"a2ed cAEA | "D"FddF "A"EccE | "Bm"DBBA "C#m"GEFG | "D"ABcd "E7"e2fg |
"A"a2ed cAEA | "D"FddF "A"EccE | "Bm"DBBA "C#m"GE"D"FD | "E7"EAAG "A"A2 :|
|: ED |\
"A"CEAE "Bm"DFBA | "E7"GBed "A"cAAE | "A"CEAE "Bm"DFBA | "E"GE"Bm"FD "E7"E2ED |
"A"CEAE "Bm"DFBA | "E7"GBed "A"ce"E"fg | "A"aecA "C#m"GE"D"FD | "E7"EAAG "A"A2 :|
